!!!OTL: Die dienende Schwester.
!!!OTL-incipit: Es war einmal Markgraf am Rhein,
!!!ARE: Europa, Mitteleuropa, Deutschland / UdSSR, Ostpreussen
!!!YOR: 4, S. 120
!!    ????
!!!SCT: Q00754
!!!TXL: @@DE
!!!YEM: Copyright 1995, estate of Helmut Schaffrath.
**kern	**text
*ICvox	*
*M3/4	*
*k[b-]	*
*F:	*
!LO:TX:a:t=376 Oſpreußen	!
{4c	Es
8c	war
8f	einmal
=1	=1
4f	.
4a	Markgraf
8.g	.
16f	am
=2	=2
4e	Rhein,
8r}	.
{8g	der
8.a	hatt'
16b-	drei
=3	=3
4.cc	ſchö-
8b-	-ne
8.a	Töchter-
16g	.
=4	=4
4f	-lein;
8r}	.
{8cc;	es
8.cc	war
16cc	ein-
=5	=5
4.cc	-mal
8cc	Markgraf
8.a	.
16f	am
=6	=6
4g	Rhein,
8r}	.
{8c	der
8f	hatt'
8a	drei
=7	=7
4.g	ſchö-
8b-	-ne
8.a	.
16g	Töchterlein.
=8	=8
4f}	.
==	==
!!!AGN: Ballade, Adelige als Dienstmagd, Tod; Kinder - Spiel, Tanz
!!!ONB: ESAC (Essen Associative Code) Database: BALLADE
!!!AMT: simple triple
!!!AIN: vox
!!!EED: Helmut Schaffrath
!!!EEV: 1.0
!!!source: Deutsche Volkslieder mit ihren Melodien. Herausgegeben vom Deutschen Volksliedarchiv. Vierter Band. Berlin 1959.
!!!page: 120
!!!ENC: Anna Maria Matuszewska
!!!EEV: 2025/02/25
*-	*-
